X: 36802
T: Shetland Jumper
R: jig
M: 6/8
K: Dmajor
|:DDD EFA|BGB dcB|Acd FGA|EA,B, CB,A,|
[1DDD EFA|BGd cAe|dBf baf|eAB {B}cBA:|
[2B,DF Bdf|baf eac'|e'b^g ef^g|aAB {B}cBA||
|:Bdf bc'd'|aAB cBA|Bdf d'c'b|abc' ecA|dfb aca|
gBg fAf|1 eGe dFc|[B3F3] [B2F2]A:|2 e^Gd cEB|Aed cBA||

